Yaru++/status/24/transmission-panel.svg

<svg height="24" width="24" xmlns="http://www.w3.org/2000/svg">
  <path d="m12.5 2.5-4.7509778 6.2500001h-.8740222c-1.03875 0-1.875.83625-1.875 1.8749999 0 1.03875.83625 1.875 1.875 1.875h3.1249999v2.5h-3.1249999l5.625 7.5 5.625-7.5h-3.125v-2.5h3.125c1.03875 0 1.875-.83625 1.875-1.875 0-1.0387499-.83625-1.8749999-1.875-1.8749999h-.874024zm-5.625 7.5h2.5.6249999 1.2500001 2.5 1.25.625 2.5c.34625 0 .625.27875.625.625s-.27875.625-.625.625h-2.5-.625-1.25-2.5-1.2500001-.6249999-2.5c-.34625 0-.625-.27875-.625-.625s.27875-.625.625-.625z" fill="#fff"/>
</svg>

<?xml version="1.0" encoding="UTF-8" standalone="no"?>
<svg
   xmlns:dc="http://purl.org/dc/elements/1.1/"
   xmlns:cc="http://creativecommons.org/ns#"
   xmlns:rdf="http://www.w3.org/1999/02/22-rdf-syntax-ns#"
   xmlns:svg="http://www.w3.org/2000/svg"
   xmlns="http://www.w3.org/2000/svg"
   xmlns:sodipodi="http://sodipodi.sourceforge.net/DTD/sodipodi-0.dtd"
   xmlns:inkscape="http://www.inkscape.org/namespaces/inkscape"
   width="24"
   height="24"
   version="1.1"
   id="svg4"
   sodipodi:docname="transmission-tray-icon.svg"
   inkscape:version="0.92.3 (2405546, 2018-03-11)">
  <metadata
     id="metadata10">
    <rdf:RDF>
      <cc:Work
         rdf:about="">
        <dc:format>image/svg+xml</dc:format>
        <dc:type
           rdf:resource="http://purl.org/dc/dcmitype/StillImage" />
        <dc:title></dc:title>
      </cc:Work>
    </rdf:RDF>
  </metadata>
  <defs
     id="defs8" />
  <sodipodi:namedview
     pagecolor="#ffffff"
     bordercolor="#666666"
     borderopacity="1"
     objecttolerance="10"
     gridtolerance="10"
     guidetolerance="10"
     inkscape:pageopacity="0"
     inkscape:pageshadow="2"
     inkscape:window-width="1920"
     inkscape:window-height="1009"
     id="namedview6"
     showgrid="false"
     inkscape:zoom="9.8333333"
     inkscape:cx="12"
     inkscape:cy="12"
     inkscape:window-x="0"
     inkscape:window-y="34"
     inkscape:window-maximized="1"
     inkscape:current-layer="svg4" />
  <path
     inkscape:connector-curvature="0"
     style="opacity:1;fill:#ffffff;fill-opacity:1;stroke:none;stroke-width:2.5;stroke-linecap:round;stroke-linejoin:round;stroke-miterlimit:4;stroke-dasharray:none;stroke-dashoffset:0;stroke-opacity:1"
     d="M 12.5,2.5 7.7490222,8.7500001 H 6.875 C 5.83625,8.7500001 5,9.5862501 5,10.625 5,11.66375 5.83625,12.5 6.875,12.5 H 9.9999999 V 15 H 6.875 L 12.5,22.5 18.125,15 H 15 v -2.5 h 3.125 C 19.16375,12.5 20,11.66375 20,10.625 20,9.5862501 19.16375,8.7500001 18.125,8.7500001 H 17.250976 Z M 6.875,10 h 2.5 0.6249999 1.2500001 2.5 1.25 0.625 2.5 c 0.34625,0 0.625,0.27875 0.625,0.625 0,0.34625 -0.27875,0.625 -0.625,0.625 H 15.625 15 13.75 11.25 9.9999999 9.375 6.875 C 6.52875,11.25 6.25,10.97125 6.25,10.625 6.25,10.27875 6.52875,10 6.875,10 Z"
     id="rect8474" />
</svg>
